X: 19936
T: Jig Runrig, The
R: jig
M: 6/8
K: Dmajor
|:e/f/|"D"d2d BAA|FAA BAA|"G"Bdd "D"AAA|"Em"fee "A"efe|
"D"d2d BAA|FAA BAA|"G"Bdd "D"Aff|"A7"edd "D"d2:|
|:a/g/|"D"faa "A"eaa|"D"daa "A"caa|"G"Bdd "D"AAA|
[1"Em"fee "A"eag|"D"faa "A"eaa|"Bm"daa "F#m"caa|"G"Bdd "D"Aff|"A"edd "D"d2:|
[2"Em"fee "A"efe|"D"d2d BAA|FAA BAA|"G"Bdd "D"Aff|"A7"edd "D"d3||

